X: 4383
T: OUR FLAG IS THERE
R: March
%R: march
B: James Kerr "Merry Melodies" v.4 p.41 #383
Z: 2016 John Chambers <jc:trillian.mit.edu>
M: C
L: 1/8
K: D
(de) |\
f3e d2(de) | f3e d2(de) | f2d2 f2a2 | e2e>e e2(de) |\
f3e d2(ef) | g3f e2(fg) | a2b2 a2g2 | f2d2 d2 ||
(fg) |\
a2a2 a2a2 | a3g f2(ef) | g2g2 g2g2 | g3f e2(fg) |\
a2a2 a2a2 | b2a2 g2(fg) | a2b2 a2g2 | f2d2 d2 |]

%%sep 1 1 500
%%sep 1 1 500

